app/Elements/icons/settings.svg

<svg xmlns="http://www.w3.org/2000/svg" width="46" height="46" viewBox="0 0 46 46">
  <g fill="none" fill-rule="evenodd" stroke-width="2" transform="translate(1 1)">
    <g stroke="#808080" transform="translate(12 12)" stroke-linecap="round" stroke-linejoin="round">
      <path d="M10.4230769,8 C11.7612212,8 12.8461538,9.0533385 12.8461538,10.3525148 C12.8461538,11.6516911 11.7612212,12.7050296 10.4230769,12.7050296 C9.08493269,12.7050296 8,11.6516911 8,10.3525148 C8,9.0533385 9.08493269,8 10.4230769,8 L10.4230769,8 Z"/>
      <path d="M21,12.2330769 L21,8.15538462 L17.92,8.15538462 C17.78,7.61169231 17.5,7.068 17.22,6.52430769 L19.39,4.4175 L16.45,1.56311538 L14.28,3.66992308 C13.79,3.39807692 13.23,3.19419231 12.6,2.99030769 L12.6,0 L8.4,0 L8.4,2.99030769 C7.84,3.12623077 7.28,3.39807692 6.72,3.66992308 L4.55,1.56311538 L1.61,4.4175 L3.78,6.52430769 C3.5,7.00003846 3.29,7.54373077 3.08,8.15538462 L0,8.15538462 L0,12.2330769 L3.08,12.2330769 C3.22,12.7767692 3.5,13.3204615 3.78,13.8641538 L1.61,15.9709615 L4.55,18.8253462 L6.72,16.7185385 C7.21,16.9903846 7.77,17.1942692 8.4,17.3981538 L8.4,20.3884615 L12.6,20.3884615 L12.6,17.3981538 C13.16,17.2622308 13.72,16.9903846 14.28,16.7185385 L16.45,18.8253462 L19.39,15.9709615 L17.22,13.8641538 C17.5,13.3884231 17.71,12.8447308 17.92,12.2330769 L21,12.2330769 L21,12.2330769 Z"/>
    </g>
    <circle cx="22" cy="22" r="22" stroke="#979797"/>
  </g>
</svg>

<?xml version="1.0" encoding="utf-8"?>
<!-- Generator: Adobe Illustrator 21.1.0, SVG Export Plug-In . SVG Version: 6.00 Build 0)  -->
<svg version="1.1" id="Layer_1" xmlns="http://www.w3.org/2000/svg" xmlns:xlink="http://www.w3.org/1999/xlink" x="0px" y="0px"
	 viewBox="0 0 46 46" style="enable-background:new 0 0 46 46;" xml:space="preserve">
<style type="text/css">
	.st0{fill:none;stroke:#808080;stroke-width:2;stroke-linecap:round;stroke-linejoin:round;}
</style>
<g transform="translate(1 1)">
	<g transform="translate(12 12)">
		<path class="st0" d="M10.4,8c1.3,0,2.4,1.1,2.4,2.4s-1.1,2.4-2.4,2.4S8,11.7,8,10.4S9.1,8,10.4,8L10.4,8z"/>
		<path class="st0" d="M21,12.2V8.2h-3.1c-0.1-0.5-0.4-1.1-0.7-1.6l2.2-2.1l-2.9-2.9l-2.2,2.1c-0.5-0.3-1.1-0.5-1.7-0.7V0H8.4v3
			C7.8,3.1,7.3,3.4,6.7,3.7L4.6,1.6L1.6,4.4l2.2,2.1C3.5,7,3.3,7.5,3.1,8.2H0v4.1h3.1c0.1,0.5,0.4,1.1,0.7,1.6L1.6,16l2.9,2.9
			l2.2-2.1c0.5,0.3,1.1,0.5,1.7,0.7v3h4.2v-3c0.6-0.1,1.1-0.4,1.7-0.7l2.2,2.1l2.9-2.9l-2.2-2.1c0.3-0.5,0.5-1,0.7-1.6H21L21,12.2z"
			/>
	</g>
</g>
</svg>
